Yaru++/actions/16/align-horizontal-right-out.svg

<svg viewBox="0 0 24 24" xmlns="http://www.w3.org/2000/svg">
  <path d="m4 4v5 1h6 1v-6h-6zm9 0v16h1v-16zm-8 1h5v4h-5zm-1 9v1 4 1h1 4 1v-1-5zm12 0v5 1h3 1v-6h-3zm-11 1h4v4h-4z" fill="#808080"/>
</svg>

<svg xmlns="http://www.w3.org/2000/svg" viewBox="0 0 24 24">
 <defs>
  <style id="current-color-scheme" type="text/css">
   .ColorScheme-Text { color:#808080; }
  </style>
 </defs>
 <path fill="#808080" class="ColorScheme-Text" d="M 4 4 L 4 9 L 4 10 L 10 10 L 11 10 L 11 4 L 5 4 L 4 4 z M 13 4 L 13 20 L 14 20 L 14 4 L 13 4 z M 5 5 L 10 5 L 10 9 L 5 9 L 5 5 z M 4 14 L 4 15 L 4 19 L 4 20 L 5 20 L 9 20 L 10 20 L 10 19 L 10 14 L 4 14 z M 16 14 L 16 19 L 16 20 L 19 20 L 20 20 L 20 14 L 17 14 L 16 14 z M 5 15 L 9 15 L 9 19 L 5 19 L 5 15 z"/>
</svg>
